Flat-Remix-Blue-Dark/apps/scalable/smilla.svg

<svg xmlns="http://www.w3.org/2000/svg" xmlns:xlink="http://www.w3.org/1999/xlink" width="512" height="512" version="1.1" viewBox="0 0 384 384"> <defs> <filter id="alpha" width="100%" height="100%" x="0%" y="0%" filterUnits="objectBoundingBox"> <feColorMatrix in="SourceGraphic" type="matrix" values="0 0 0 0 1 0 0 0 0 1 0 0 0 0 1 0 0 0 1 0"/> </filter> <mask id="mask1"> <g filter="url(#alpha)"> <rect style="fill:rgb(0%,0%,0%);fill-opacity:0.2" width="384" height="384" x="0" y="0"/> </g> </mask> <clipPath id="clip2"> <rect width="384" height="384" x="0" y="0"/> </clipPath> <g id="surface8" clip-path="url(#clip2)"> <path d="M 84 120 L 228 120 L 228 126 L 84 126 Z M 84 120" style="fill:rgb(0%,0%,0%)"/> </g> <mask id="mask2"> <g filter="url(#alpha)"> <rect style="fill:rgb(0%,0%,0%);fill-opacity:0.2" width="384" height="384" x="0" y="0"/> </g> </mask> <clipPath id="clip3"> <rect width="384" height="384" x="0" y="0"/> </clipPath> <g id="surface11" clip-path="url(#clip3)"> <path d="M 84 156 L 264 156 L 264 162 L 84 162 Z M 84 156" style="fill:rgb(0%,0%,0%)"/> </g> <mask id="mask3"> <g filter="url(#alpha)"> <rect style="fill:rgb(0%,0%,0%);fill-opacity:0.2" width="384" height="384" x="0" y="0"/> </g> </mask> <clipPath id="clip4"> <rect width="384" height="384" x="0" y="0"/> </clipPath> <g id="surface14" clip-path="url(#clip4)"> <path d="M 84 192 L 300 192 L 300 198 L 84 198 Z M 84 192" style="fill:rgb(0%,0%,0%)"/> </g> <mask id="mask4"> <g filter="url(#alpha)"> <rect style="fill:rgb(0%,0%,0%);fill-opacity:0.2" width="384" height="384" x="0" y="0"/> </g> </mask> <clipPath id="clip5"> <rect width="384" height="384" x="0" y="0"/> </clipPath> <g id="surface17" clip-path="url(#clip5)"> <path d="M 84 228 L 300 228 L 300 234 L 84 234 Z M 84 228" style="fill:rgb(0%,0%,0%)"/> </g> <mask id="mask5"> <g filter="url(#alpha)"> <rect style="fill:rgb(0%,0%,0%);fill-opacity:0.2" width="384" height="384" x="0" y="0"/> </g> </mask> <clipPath id="clip6"> <rect width="384" height="384" x="0" y="0"/> </clipPath> <g id="surface20" clip-path="url(#clip6)"> <path d="M 120 264 L 300 264 L 300 270 L 120 270 Z M 120 264" style="fill:rgb(0%,0%,0%)"/> </g> <mask id="mask6"> <g filter="url(#alpha)"> <rect style="fill:rgb(0%,0%,0%);fill-opacity:0.2" width="384" height="384" x="0" y="0"/> </g> </mask> <clipPath id="clip7"> <rect width="384" height="384" x="0" y="0"/> </clipPath> <g id="surface23" clip-path="url(#clip7)"> <path d="M 156 300 L 300 300 L 300 306 L 156 306 Z M 156 300" style="fill:rgb(0%,0%,0%)"/> </g> </defs> <path style="fill:rgb(54.901%,25.882%,67.058%)" d="M 349.33286,328.91134 V 45.713656 c 0,-8.688278 -7.04574,-15.734009 -15.73402,-15.734009 H 50.401156 c -8.688278,0 -15.734009,7.045731 -15.734009,15.734009 V 328.91134 c 0,8.68828 7.045731,15.73402 15.734009,15.73402 H 333.59884 c 8.68828,0 15.73402,-7.04574 15.73402,-15.73402 z m 0,0"/> <path d="M 67.201172 39.972656 C 55.616812 39.972656 46.222656 49.366812 46.222656 60.951172 L 46.222656 70.951172 C 46.222656 59.366799 55.616812 49.972656 67.201172 49.972656 L 444.79883 49.972656 C 456.38319 49.972656 465.77734 59.366799 465.77734 70.951172 L 465.77734 60.951172 C 465.77734 49.366812 456.38319 39.972656 444.79883 39.972656 L 67.201172 39.972656 z" transform="scale(0.75)" style="fill:rgb(100.000%,100.000%,100.000%);opacity:0.3"/> <path d="M 46.222656 428.54883 L 46.222656 438.54883 C 46.222656 450.1332 55.616799 459.52734 67.201172 459.52734 L 444.79883 459.52734 C 456.3832 459.52734 465.77734 450.1332 465.77734 438.54883 L 465.77734 428.54883 C 465.77734 440.1332 456.3832 449.52734 444.79883 449.52734 L 67.201172 449.52734 C 55.616799 449.52734 46.222656 440.1332 46.222656 428.54883 z" transform="scale(0.75)" style="opacity:0.3"/> <path style="fill:rgb(29.803%,29.803%,29.803%)" d="M 23.25,187.3125 H 79.5 v 56.25 H 23.25 Z m 0,0"/> <path style="fill:rgb(99.215%,28.627%,28.627%)" d="m 79.5,187.3125 h 56.25 v 56.25 H 79.5 Z m 0,0"/> <path style="fill:rgb(21.176%,48.235%,94.117%)" d="M 135.75,187.3125 H 192 v 56.25 h -56.25 z m 0,0"/> <path style="fill:rgb(80.000%,80.000%,80.000%)" d="m 192,187.3125 h 56.25 v 56.25 H 192 Z m 0,0"/> <path style="fill:rgb(100.000%,78.039%,18.823%)" d="m 248.25,187.3125 h 56.25 v 56.25 h -56.25 z m 0,0"/> <path style="fill:rgb(100.000%,100.000%,100.000%)" d="m 304.5,187.3125 h 56.25 v 56.25 H 304.5 Z m 0,0"/> <path style="fill:rgb(21.176%,48.235%,94.117%)" d="M 23.25,131.0625 H 79.5 v 56.25 H 23.25 Z m 0,0"/> <path style="fill:rgb(100.000%,100.000%,100.000%)" d="m 79.5,131.0625 h 56.25 v 56.25 H 79.5 Z m 0,0"/> <path style="fill:rgb(29.803%,29.803%,29.803%)" d="M 135.75,131.0625 H 192 v 56.25 h -56.25 z m 0,0"/> <path style="fill:rgb(100.000%,100.000%,100.000%)" d="m 192,131.0625 h 56.25 v 56.25 H 192 Z m 0,0"/> <path style="fill:rgb(80.000%,80.000%,80.000%)" d="m 248.25,131.0625 h 56.25 v 56.25 h -56.25 z m 0,0"/> <path style="fill:rgb(21.176%,48.235%,94.117%)" d="m 304.5,131.0625 h 56.25 v 56.25 H 304.5 Z m 0,0"/> <path style="fill:rgb(100.000%,100.000%,100.000%)" d="M 23.25,74.8125 H 79.5 v 56.25 H 23.25 Z m 0,0"/> <path style="fill:rgb(100.000%,78.039%,18.823%)" d="m 79.5,74.8125 h 56.25 v 56.25 H 79.5 Z m 0,0"/> <path style="fill:rgb(100.000%,78.039%,18.823%)" d="M 135.75,74.8125 H 192 v 56.25 h -56.25 z m 0,0"/> <path style="fill:rgb(54.901%,25.882%,67.058%)" d="m 192,74.8125 h 56.25 v 56.25 H 192 Z m 0,0"/> <path style="fill:rgb(100.000%,78.039%,18.823%)" d="m 248.25,74.8125 h 56.25 v 56.25 h -56.25 z m 0,0"/> <path style="fill:rgb(100.000%,78.039%,18.823%)" d="m 79.5,243.5625 h 56.25 v 56.25 H 79.5 Z m 0,0"/> <path style="fill:rgb(54.901%,25.882%,67.058%)" d="M 135.75,243.5625 H 192 v 56.25 h -56.25 z m 0,0"/> <path style="fill:rgb(99.215%,28.627%,28.627%)" d="m 192,243.5625 h 56.25 v 56.25 H 192 Z m 0,0"/> <path style="fill:rgb(100.000%,78.039%,18.823%)" d="m 248.25,243.5625 h 56.25 v 56.25 h -56.25 z m 0,0"/> <path style="fill:rgb(99.215%,28.627%,28.627%)" d="m 304.5,243.5625 h 56.25 v 56.25 H 304.5 Z m 0,0"/> <path style="fill:rgb(21.176%,48.235%,94.117%)" d="M 135.75,299.8125 H 192 v 56.25 h -56.25 z m 0,0"/> <path style="fill:rgb(100.000%,100.000%,100.000%)" d="m 192,299.8125 h 56.25 v 56.25 H 192 Z m 0,0"/> <path style="fill:rgb(29.803%,29.803%,29.803%)" d="m 248.25,299.8125 h 56.25 v 56.25 h -56.25 z m 0,0"/> <path style="fill:rgb(54.901%,25.882%,67.058%)" d="m 304.5,299.8125 h 56.25 v 56.25 H 304.5 Z m 0,0"/> <path style="fill:rgb(100.000%,78.039%,18.823%)" d="M 23.25,18.5625 H 79.5 v 56.25 H 23.25 Z m 0,0"/> <path style="fill:rgb(99.215%,28.627%,28.627%)" d="m 79.5,18.5625 h 56.25 v 56.25 H 79.5 Z m 0,0"/> <path style="fill:rgb(100.000%,78.039%,18.823%)" d="M 135.75,18.5625 H 192 v 56.25 h -56.25 z m 0,0"/> <path style="fill:rgb(21.176%,48.235%,94.117%)" d="m 192,18.5625 h 56.25 v 56.25 H 192 Z m 0,0"/> <use width="100%" height="100%" x="0" y="0" mask="url(#mask1)" transform="matrix(1.5625,0,0,1.5625,-108,-112.6875)" xlink:href="#surface8"/> <use width="100%" height="100%" x="0" y="0" mask="url(#mask2)" transform="matrix(1.5625,0,0,1.5625,-108,-112.6875)" xlink:href="#surface11"/> <use width="100%" height="100%" x="0" y="0" mask="url(#mask3)" transform="matrix(1.5625,0,0,1.5625,-108,-112.6875)" xlink:href="#surface14"/> <use width="100%" height="100%" x="0" y="0" mask="url(#mask4)" transform="matrix(1.5625,0,0,1.5625,-108,-112.6875)" xlink:href="#surface17"/> <use width="100%" height="100%" x="0" y="0" mask="url(#mask5)" transform="matrix(1.5625,0,0,1.5625,-108,-112.6875)" xlink:href="#surface20"/> <use width="100%" height="100%" x="0" y="0" mask="url(#mask6)" transform="matrix(1.5625,0,0,1.5625,-108,-112.6875)" xlink:href="#surface23"/> </svg>

<svg width="512" height="512" version="1.1" viewBox="0 0 384 384" xmlns="http://www.w3.org/2000/svg"><defs><clipPath><rect width="384" height="384"/></clipPath><clipPath><rect width="384" height="384"/></clipPath><clipPath><rect width="384" height="384"/></clipPath><clipPath><rect width="384" height="384"/></clipPath><clipPath><rect width="384" height="384"/></clipPath><clipPath><rect width="384" height="384"/></clipPath></defs><path d="m135.75 307.31v56.25h225v-56.25h-168.75z" fill="#000103" opacity=".3"/><path d="m349.33 328.91v-283.2c0-8.6883-7.0457-15.734-15.734-15.734h-283.2c-8.6883 0-15.734 7.0457-15.734 15.734v283.2c0 8.6883 7.0457 15.734 15.734 15.734h283.2c8.6883 0 15.734-7.0457 15.734-15.734z" fill="#8b41aa"/><path transform="scale(.75)" d="m46.223 428.55v10c0 11.584 9.3941 20.979 20.979 20.979h377.6c11.584 0 20.979-9.3941 20.979-20.979v-10c0 11.584-9.3941 20.979-20.979 20.979h-377.6c-11.584 0-20.979-9.3941-20.979-20.979z" opacity=".3"/><path d="m135.75 299.81h56.25v56.25h-56.25z" fill="#357aef"/><path d="m192 299.81h56.25v56.25h-56.25z" fill="#fff"/><path d="m248.25 299.81h56.25v56.25h-56.25z" fill="#4b4b4b"/><path d="m304.5 299.81h56.25v56.25h-56.25z" fill="#8b41aa"/><path d="m79.5 251.06v56.25h281.25v-56.25h-225z" opacity=".3"/><path d="m79.5 243.56h56.25v56.25h-56.25z" fill="#ffc62f"/><path d="m135.75 243.56h56.25v56.25h-56.25z" fill="#8b41aa"/><path d="m192 243.56h56.25v56.25h-56.25z" fill="#fc4848"/><path d="m248.25 243.56h56.25v56.25h-56.25z" fill="#ffc62f"/><path d="m304.5 243.56h56.25v56.25h-56.25z" fill="#fc4848"/><path d="m23.25 194.81v56.25h337.5v-56.25h-281.25z" fill="#0a0a0a" opacity=".3"/><path d="m23.25 187.31h56.25v56.25h-56.25z" fill="#4b4b4b"/><path d="m79.5 187.31h56.25v56.25h-56.25z" fill="#fc4848"/><path d="m135.75 187.31h56.25v56.25h-56.25z" fill="#357aef"/><path d="m192 187.31h56.25v56.25h-56.25z" fill="#ccc"/><path d="m248.25 187.31h56.25v56.25h-56.25z" fill="#ffc62f"/><path d="m304.5 187.31h56.25v56.25h-56.25z" fill="#fff"/><path transform="scale(.75)" d="m67.201 39.973c-11.584 0-20.979 9.3942-20.979 20.979v10c0-11.584 9.3942-20.979 20.979-20.979h377.6c11.584 0 20.979 9.3941 20.979 20.979v-10c0-11.584-9.3942-20.979-20.979-20.979h-377.6z" fill="#fff" opacity=".3"/><path d="m23.25 138.56v56.25h337.5v-56.25h-281.25z" fill="#01040b" opacity=".3"/><path d="m23.25 131.06h56.25v56.25h-56.25z" fill="#357aef"/><path d="m79.5 131.06h56.25v56.25h-56.25z" fill="#fff"/><path d="m135.75 131.06h56.25v56.25h-56.25z" fill="#4b4b4b"/><path d="m192 131.06h56.25v56.25h-56.25z" fill="#fff"/><path d="m248.25 131.06h56.25v56.25h-56.25z" fill="#ccc"/><path d="m23.25 82.312v56.25h281.25v-56.25h-225z" opacity=".3"/><path d="m304.5 131.06h56.25v56.25h-56.25z" fill="#357aef"/><path d="m23.25 74.812h56.25v56.25h-56.25z" fill="#fff"/><path d="m79.5 74.812h56.25v56.25h-56.25z" fill="#ffc62f"/><path d="m135.75 74.812h56.25v56.25h-56.25z" fill="#ffc62f"/><path d="m192 74.812h56.25v56.25h-56.25z" fill="#8b41aa"/><path d="m23.25 26.062v56.25h225v-56.25h-168.75z" opacity=".3"/><path d="m248.25 74.812h56.25v56.25h-56.25z" fill="#ffc62f"/><path d="m23.25 18.562h56.25v56.25h-56.25z" fill="#ffc62f"/><path d="m79.5 18.562h56.25v56.25h-56.25z" fill="#fc4848"/><path d="m135.75 18.562h56.25v56.25h-56.25z" fill="#ffc62f"/><path d="m192 18.562h56.25v56.25h-56.25z" fill="#357aef"/></svg>
